src/assets/SortDescending.svg

<svg width="25" height="24" viewBox="0 0 25 24" fill="none" xmlns="http://www.w3.org/2000/svg">
<path fill-rule="evenodd" clip-rule="evenodd" d="M0 3.15789C0 2.32947 0.671573 1.65789 1.5 1.65789H12.64C13.4684 1.65789 14.14 2.32947 14.14 3.15789C14.14 3.98632 13.4684 4.65789 12.64 4.65789H1.5C0.671573 4.65789 0 3.98632 0 3.15789Z" fill="#333333"/>
<path fill-rule="evenodd" clip-rule="evenodd" d="M0 12C0 11.1716 0.671573 10.5 1.5 10.5H9.15961C9.98804 10.5 10.6596 11.1716 10.6596 12C10.6596 12.8284 9.98804 13.5 9.15961 13.5H1.5C0.671573 13.5 0 12.8284 0 12Z" fill="#333333"/>
<path fill-rule="evenodd" clip-rule="evenodd" d="M0 20.8421C0 20.0137 0.671573 19.3421 1.5 19.3421H22.5C23.3284 19.3421 24 20.0137 24 20.8421C24 21.6705 23.3284 22.3421 22.5 22.3421H1.5C0.671573 22.3421 0 21.6705 0 20.8421Z" fill="#333333"/>
<path fill-rule="evenodd" clip-rule="evenodd" d="M23.6241 9.90527C24.1335 10.4146 24.1357 11.2383 23.6291 11.7449L19.3727 16.0013C18.8661 16.5079 18.0425 16.5057 17.5331 15.9963L13.4011 11.8644C12.8917 11.355 12.8895 10.5313 13.3961 10.0247C13.9028 9.5181 14.7264 9.52033 15.2358 10.0297L17.1411 11.935L17.1411 2.83611C17.1391 2.11768 17.72 1.53686 18.4384 1.53881C19.1568 1.54075 19.7408 2.12473 19.7427 2.84316L19.7427 11.9421L21.7845 9.90028C22.2911 9.39366 23.1148 9.39589 23.6241 9.90527Z" fill="#333333"/>
</svg>

<svg xmlns="http://www.w3.org/2000/svg" width="25" height="24" fill="none"><path fill="#333" fill-rule="evenodd" d="M0 3.158a1.5 1.5 0 0 1 1.5-1.5h11.14a1.5 1.5 0 0 1 0 3H1.5a1.5 1.5 0 0 1-1.5-1.5M0 12a1.5 1.5 0 0 1 1.5-1.5h7.66a1.5 1.5 0 0 1 0 3H1.5A1.5 1.5 0 0 1 0 12M0 20.842a1.5 1.5 0 0 1 1.5-1.5h21a1.5 1.5 0 0 1 0 3h-21a1.5 1.5 0 0 1-1.5-1.5M23.624 9.905a1.3 1.3 0 0 1 .005 1.84L19.373 16a1.3 1.3 0 0 1-1.84-.005l-4.132-4.132a1.3 1.3 0 0 1-.005-1.84 1.3 1.3 0 0 1 1.84.006l1.905 1.905V2.836a1.292 1.292 0 0 1 1.297-1.297 1.31 1.31 0 0 1 1.305 1.304v9.1L21.785 9.9a1.3 1.3 0 0 1 1.84.005" clip-rule="evenodd"/></svg>
